!!!!SEGMENT: pl-cz--ii-184--001-003_neumann-wawrzyniec--vesperae-de-apostolis-in-c-credidi.krn
!!!cenid: 17xx:1001
!!!COM: Neumann, Wawrzyniec
!!!COM-rismID: pe30107352
!!!CDT: ~1700-~1799
!!!CNT:
!!!OPR: Vesperae de Apostolis in C
!!!OTL: Credidi
!!!OMV: 003
!!!PDT:
!!!AGN: Sacred; Vespers
!!!SMS-siglum: PL-CZ
!!!SMS-shelfmark: II-184
!!!SMS-shelfwork: 001-003 M
!!!SMS-variant:
!!!SMS-altvar:
!!!NIFC-rismSourceID: 300000912
!!!NIFC-islandoraID: pl-cz:32706
!!!URL-pdf-islandora: https://repozytorium.nifc.pl/islandora/object/pl-cz%3A32706/datastream/PDF/view
!!!URL-scan:
!!!ONB-nifc: UWAGA: części Vesperae: Dixit Dominus, Laudate pueri, Credidi, In convertendo, Domine probasti me, Magnificat
!!!AIN: 1 alto 1 bass 2 clrno 1 organ 1 soprn 1 tenor 2 violn
!!!key: G
**kern	**fba	**dynam	**kern	**dynam	**kern	**dynam	**kern	**text	**kern	**text	**kern	**text	**kern	**text	**kern	**kern
*part9	*part9	*part9	*part8	*part8	*part7	*part7	*part6	*part6	*part5	*part5	*part4	*part4	*part3	*part3	*part2	*part1
*staff9	*	*	*staff8	*	*staff7	*	*staff6	*staff6	*staff5	*staff5	*staff4	*staff4	*staff3	*staff3	*staff2	*staff1
*I"Organo	*	*	*I"Violino Secondo.	*	*I"Violino. Primo.	*	*I"Basſo.	*	*I"Tenore.	*	*I"Alto	*	*I"Canto	*	*I"Clarino Secondo ad libitum	*I"Clarino Primo ad libitum
*I'org	*	*	*I'vl II	*	*I'vl I	*	*I'B	*	*I'T	*	*I'A	*	*I'C	*	*I'clno II	*I'clno I
*ICklav	*	*	*ICstr	*	*ICstr	*	*ICvox	*	*ICvox	*	*ICvox	*	*ICvox	*	*ICbras	*ICbras
*Iorgan	*	*	*Ivioln	*	*Ivioln	*	*Ibass	*	*Itenor	*	*Ialto	*	*Isoprn	*	*Iclrno	*Iclrno
*clefF4	*	*	*clefG2	*	*clefG2	*	*clefF4	*	*clefC4	*	*clefC3	*	*clefC1	*	*clefG2	*clefG2
*	*	*	*	*	*	*	*	*	*	*	*	*	*	*	*ITrd3c5	*ITrd3c5
*G:	*	*	*G:	*	*G:	*	*G:	*	*G:	*	*G:	*	*G:	*	*G:	*G:
*k[f#]	*	*	*k[f#]	*	*k[f#]	*	*k[f#]	*	*k[f#]	*	*k[f#]	*	*k[f#]	*	*k[f#]	*k[f#]
*M4/4	*	*	*M4/4	*	*M4/4	*	*M4/4	*	*M4/4	*	*M4/4	*	*M4/4	*	*M4/4	*M4/4
*met(c)	*	*	*met(c)	*	*met(c)	*	*met(c)	*	*met(c)	*	*met(c)	*	*met(c)	*	*met(c)	*met(c)
=1	=1	=1	=1	=1	=1	=1	=1	=1	=1	=1	=1	=1	=1	=1	=1	=1
!	!	!	!	!	!	!	!	!	!LO:TX:t=P: all\right:problem	!	!	!	!LO:TX:t=P: all\right:problem	!	!	!
!	!	!	!	!	!	!	!LO:TX:b:t=1.	!	!	!	!	!	!	!	!	!
!LO:TX:t=P:problem=mixed beam	!	!	!	!LO:DY:a	!	!LO:DY:a	!LO:TX:a:t=Solo	!	!	!	!	!	!	!	!LO:TX:a:t=Tacet	!LO:TX:a:t=Tacet
!	!	!	!	!	!	!LO:DY:t=f&colon;	!	!	!	!	!	!	!	!	!	!
!	!	!LO:DY:a:t=f&colon;	!	!LO:DY:t=f&colon;	!	!	!	!	!	!	!	!	!	!	!	!
8GG/L	.	f	4B/	f	16dd\LL	f	1r	.	1r	.	1r	.	1r	.	1ryy	1ryy
.	.	.	.	.	16b\J	.	.	.	.	.	.	.	.	.	.	.
8E\	.	.	.	.	8g\J	.	.	.	.	.	.	.	.	.	.	.
8D\	.	.	8r	.	8g\L	.	.	.	.	.	.	.	.	.	.	.
8C\J	.	.	8e/	.	8g\J	.	.	.	.	.	.	.	.	.	.	.
!	!	!	!LO:TX:t=P:problem=mixed beam	!	!	!	!	!	!	!	!	!	!	!	!	!
8BB/L	6	.	8d\L	.	16gg\LL	.	.	.	.	.	.	.	.	.	.	.
.	.	.	.	.	16dd\	.	.	.	.	.	.	.	.	.	.	.
8GG/J	.	.	16dd\L	.	16bb\	.	.	.	.	.	.	.	.	.	.	.
.	.	.	16b/JJ	.	16dd\JJ	.	.	.	.	.	.	.	.	.	.	.
8r	.	.	8a\L	.	16cc\LL	.	.	.	.	.	.	.	.	.	.	.
.	.	.	.	.	16a\	.	.	.	.	.	.	.	.	.	.	.
8C/	2| 2	.	8a\J	.	16f#\	.	.	.	.	.	.	.	.	.	.	.
.	.	.	.	.	16d\JJ	.	.	.	.	.	.	.	.	.	.	.
=2	=2	=2	=2	=2	=2	=2	=2	=2	=2	=2	=2	=2	=2	=2	=2	=2
!	!	!	!	!	!	!LO:DY:a:t=p&colon;	!	!	!	!	!	!	!	!	!	!
8BB/L	6	.	8d/	.	8g/	p	16d\	Cre-	1r	.	1r	.	1r	.	1ryy	1ryy
.	.	.	.	.	.	.	16B\	-di-	.	.	.	.	.	.	.	.
8GG/J	.	.	4b\	.	4dd\	.	8G\	-di	.	.	.	.	.	.	.	.
8r	.	.	.	.	.	.	8G\	pro-	.	.	.	.	.	.	.	.
!	!	!	!	!	!LO:TX:a:t=h	!	!	!	!	!	!	!	!	!	!	!
!	!	!	!	!	!LO:TX:t=P:problem=zapis poprawiany	!	!	!	!	!	!	!	!	!	!	!
8G\	.	.	8d/	.	8b\	.	8G\	-pter	.	.	.	.	.	.	.	.
!	!	!	!	!	!LO:N:vis=16.	!	!	!	!	!	!	!	!	!	!	!
8D\L	.	.	16f#\LL	.	16a\LL	.	(16F#\LL	quod	.	.	.	.	.	.	.	.
.	.	.	32g\L	.	(32b\L	.	16D\JJ)	.	.	.	.	.	.	.	.	.
.	.	.	32a\JJ	.	32cc\JJ)	.	.	.	.	.	.	.	.	.	.	.
8D\	6 4	.	8g\J	.	8b\J	.	(16G\LL	loc-	.	.	.	.	.	.	.	.
.	.	.	.	.	.	.	16B\JJ)	.	.	.	.	.	.	.	.	.
8F#\	.	.	16b\LL	.	8r	.	8d\	-u-	.	.	.	.	.	.	.	.
.	.	.	16a\J	.	.	.	.	.	.	.	.	.	.	.	.	.
8D\J	.	.	8g\J	.	8ff#\	.	8c\	-tus	.	.	.	.	.	.	.	.
=3	=3	=3	=3	=3	=3	=3	=3	=3	=3	=3	=3	=3	=3	=3	=3	=3
!	!	!	!LO:TX:t=P:problem=mixed beam	!	!LO:TX:t=P:problem=mixed beam	!	!	!	!	!	!	!	!	!	!	!
.	.	.	.	.	.	.	8qqB/	.	.	.	.	.	.	.	.	.
8G\L	.	.	8g\L	.	8gg\L	.	4B\	sum	1r	.	1r	.	1r	.	1ryy	1ryy
8G\	.	.	8d/	.	8g/	.	.	.	.	.	.	.	.	.	.	.
8GG/	.	.	8d/	.	8b/	.	8r	.	.	.	.	.	.	.	.	.
8GG/J	.	.	8d/J	.	8b/J	.	16d\	e-	.	.	.	.	.	.	.	.
.	.	.	.	.	.	.	16G\	-go	.	.	.	.	.	.	.	.
8D\L	6 4	.	8g/L	.	8b/L	.	8G\	au-	.	.	.	.	.	.	.	.
8D\	5 3	.	8f#/	.	8a/	.	8F#\	-tem	.	.	.	.	.	.	.	.
8D\	.	.	8f#/	.	8cc/	.	8r	.	.	.	.	.	.	.	.	.
*	*	*	*	*	*	*	*Xtuplet	*	*	*	*	*	*	*	*	*
8D\J	7	.	8f#/J	.	8cc/J	.	24A\	hu-	.	.	.	.	.	.	.	.
.	.	.	.	.	.	.	24B\	-mi-	.	.	.	.	.	.	.	.
.	.	.	.	.	.	.	24c\	-li-	.	.	.	.	.	.	.	.
!	!	!	!	!	!	!	!LO:LB:g=original	!	!	!	!	!	!	!	!	!
=4	=4	=4	=4	=4	=4	=4	=4	=4	=4	=4	=4	=4	=4	=4	=4	=4
8G\L	9 8	.	8a/L	.	8cc\L	.	8c\	-a-	1r	.	1r	.	1r	.	1ryy	1ryy
8G\	8 3	.	8g/	.	8b\J	.	8B\	-tus	.	.	.	.	.	.	.	.
8BB\	6	.	8g/	.	16dd\LL	.	8r	.	.	.	.	.	.	.	.	.
.	.	.	.	.	16gg\	.	.	.	.	.	.	.	.	.	.	.
8BB\J	.	.	8g/J	.	16dd\	.	8d\	hu-	.	.	.	.	.	.	.	.
.	.	.	.	.	16bb\JJ	.	.	.	.	.	.	.	.	.	.	.
!	!	!	!	!	!LO:LB:g=original	!	!	!	!	!	!	!	!	!	!	!
.	.	.	.	.	8qqbb/	.	8qqd/	.	.	.	.	.	.	.	.	.
8C/L	7	.	8ee\	.	4.aa\	.	4.c\	-mi-	.	.	.	.	.	.	.	.
8C/	6	.	4ee\	.	.	.	.	.	.	.	.	.	.	.	.	.
8C/	5	.	.	.	.	.	.	.	.	.	.	.	.	.	.	.
8C/J	.	.	8dd\	.	8gg\	.	8B\	-li-	.	.	.	.	.	.	.	.
!LO:LB:g=original	!	!	!LO:LB:g=original	!	!	!	!	!	!	!	!	!	!	!	!	!
=5	=5	=5	=5	=5	=5	=5	=5	=5	=5	=5	=5	=5	=5	=5	=5	=5
.	.	.	.	.	.	.	8qqB/	.	.	.	.	.	.	.	.	.
8C/L	.	.	8dd\	.	16cc\LL	.	4A\	-a-	1r	.	1r	.	1r	.	1ryy	1ryy
.	.	.	.	.	16aa\JJ	.	.	.	.	.	.	.	.	.	.	.
8C/	.	.	4a/	.	4cc\	.	.	.	.	.	.	.	.	.	.	.
8C/	.	.	.	.	.	.	8A\	-tus	.	.	.	.	.	.	.	.
8C#X/J	.	.	8g/	.	8b\	.	8G\	sum	.	.	.	.	.	.	.	.
8D\L	6 4	.	8g/L	.	8b/L	.	8G\	ni-	.	.	.	.	.	.	.	.
8D\	5 3	.	8f#/	.	32a/LL	.	8F#\	-mis	.	.	.	.	.	.	.	.
.	.	.	.	.	32f#/	.	.	.	.	.	.	.	.	.	.	.
.	.	.	.	.	32e/	.	.	.	.	.	.	.	.	.	.	.
.	.	.	.	.	32d/JJJ	.	.	.	.	.	.	.	.	.	.	.
8F#\	.	.	8a/	.	8dd\L	.	8r	.	.	.	.	.	.	.	.	.
8D\J	.	.	8f#/J	.	8dd\J	.	16A\	e-	.	.	.	.	.	.	.	.
.	.	.	.	.	.	.	16D\	-go	.	.	.	.	.	.	.	.
=6	=6	=6	=6	=6	=6	=6	=6	=6	=6	=6	=6	=6	=6	=6	=6	=6
8G\L	.	.	8b\L	.	8dd\	.	8B\	di-	1r	.	1r	.	1r	.	1ryy	1ryy
8GG/	.	.	8b\	.	4dd\	.	8B\	-xi	.	.	.	.	.	.	.	.
8GG/	.	.	8b\	.	.	.	16B\	in	.	.	.	.	.	.	.	.
.	.	.	.	.	.	.	16G\	ex-	.	.	.	.	.	.	.	.
8GG/J	6	.	8b\J	.	16gg\LL	.	16E\	-ces-	.	.	.	.	.	.	.	.
.	.	.	.	.	16ee\JJ	.	16D\	-su	.	.	.	.	.	.	.	.
8AA/L	2|	.	8a\L	.	8ff#\L	.	8D\	me-	.	.	.	.	.	.	.	.
8AA/J	#	.	8a\	.	8ee\	.	8C#X\	-o	.	.	.	.	.	.	.	.
8r	.	.	8cc#X\	.	8ee\	.	8.G\	om-	.	.	.	.	.	.	.	.
!	!	!	!	!	!LO:TX:a:t=d	!	!	!	!	!	!	!	!	!	!	!
8AA/	#	.	8cc#\J	.	8dd\J	.	.	.	.	.	.	.	.	.	.	.
.	.	.	.	.	.	.	16G\	-nis	.	.	.	.	.	.	.	.
=7	=7	=7	=7	=7	=7	=7	=7	=7	=7	=7	=7	=7	=7	=7	=7	=7
!	!	!	!	!	!LO:TX:t=P:problem=mixed beam	!	!	!	!	!	!	!	!	!	!	!
!LO:N:vis=16	!	!	!	!	!	!	!	!	!	!	!	!	!	!	!	!
8D\L	.	.	8a/L	.	8dd\L	.	16F#\LL	ho-	1r	.	1r	.	1r	.	1ryy	1ryy
.	.	.	.	.	.	.	16D\JJ	.	.	.	.	.	.	.	.	.
!LO:N:vis=16	!	!	!	!	!	!	!	!	!	!	!	!	!	!	!	!
8C#X\	.	.	8a/	.	16g/L	.	16E\LL	-mo	.	.	.	.	.	.	.	.
.	.	.	.	.	16e/JJ	.	16G\JJ	.	.	.	.	.	.	.	.	.
.	.	.	.	.	.	.	8qqG/	.	.	.	.	.	.	.	.	.
!LO:N:vis=16	!	!	!	!	!	!	!	!	!	!	!	!	!	!	!	!
8D\	.	.	8a/	.	8ee\L	.	4F#\	men-	.	.	.	.	.	.	.	.
8E\J	.	.	8a/J	.	8dd\J	.	.	.	.	.	.	.	.	.	.	.
8A\L	#	.	8a/L	.	16cc#X\LL	.	4E\	-dax	.	.	.	.	.	.	.	.
.	.	.	.	.	16a\	.	.	.	.	.	.	.	.	.	.	.
8AA/	.	.	16g/L	.	16b\	.	.	.	.	.	.	.	.	.	.	.
.	.	.	16a/JJ	.	16cc#\JJ	.	.	.	.	.	.	.	.	.	.	.
8AA/	.	.	16b\LL	.	16dd\LL	.	4r	.	.	.	.	.	.	.	.	.
.	.	.	16cc#X\	.	16ee\	.	.	.	.	.	.	.	.	.	.	.
8AA/J	.	.	16dd\	.	16ff#\	.	.	.	.	.	.	.	.	.	.	.
.	.	.	16ee\JJ	.	16gg\JJ	.	.	.	.	.	.	.	.	.	.	.
=8	=8	=8	=8	=8	=8	=8	=8	=8	=8	=8	=8	=8	=8	=8	=8	=8
!	!	!	!LO:TX:t=P:problem=mixed beam	!	!	!	!	!	!	!	!	!	!	!	!	!
8r	.	.	8ff#\L	.	4.aa\	.	4.A\	quid	1r	.	1r	.	1r	.	1ryy	1ryy
8D\L	.	.	8ff#\	.	.	.	.	.	.	.	.	.	.	.	.	.
8D\	.	.	8f#\	.	.	.	.	.	.	.	.	.	.	.	.	.
.	.	.	.	.	8qqgg/	.	.	.	.	.	.	.	.	.	.	.
8D\J	.	.	8g\J	.	8ff#\	.	8E\	re-	.	.	.	.	.	.	.	.
.	.	.	.	.	8qqee/	.	8qqE/	.	.	.	.	.	.	.	.	.
!	!	!	!	!	!LO:LB:g=original	!	!	!	!	!	!	!	!	!	!	!
8D\L	.	.	8g/L	.	4dd#X\	.	8.D\	-tri-	.	.	.	.	.	.	.	.
8D\	.	.	8f#/	.	.	.	.	.	.	.	.	.	.	.	.	.
.	.	.	.	.	.	.	16D\	-bu-	.	.	.	.	.	.	.	.
8D\	.	.	8f#/	.	4dd#\	.	4D\	-am	.	.	.	.	.	.	.	.
8D\J	.	.	8f#/J	.	.	.	.	.	.	.	.	.	.	.	.	.
=9	=9	=9	=9	=9	=9	=9	=9	=9	=9	=9	=9	=9	=9	=9	=9	=9
8D\L	6 4	.	16g/LL	.	16dd\LL	.	4B\	Do-	1r	.	1r	.	1r	.	1ryy	1ryy
.	.	.	16b/JJ	.	16gg\JJ	.	.	.	.	.	.	.	.	.	.	.
8D\	.	.	4gg\	.	4bb\	.	.	.	.	.	.	.	.	.	.	.
8D\	.	.	.	.	.	.	(16B\LL	.	.	.	.	.	.	.	.	.
.	.	.	.	.	.	.	16G\)	.	.	.	.	.	.	.	.	.
8D\J	.	.	8gg\	.	8bb\	.	(16d\	-mi-	.	.	.	.	.	.	.	.
.	.	.	.	.	.	.	16B\JJ)	.	.	.	.	.	.	.	.	.
.	.	.	.	.	.	.	8qqB/	.	.	.	.	.	.	.	.	.
!LO:LB:g=original	!	!	!	!	!	!	!	!	!	!	!	!	!	!	!	!
8D\L	5	.	8gg\L	.	8bb\L	.	4A\	-no	.	.	.	.	.	.	.	.
8D\	.	.	8ff#\J	.	8aa\J	.	.	.	.	.	.	.	.	.	.	.
8F#\	.	.	16d/LL	.	16a\LL	.	8r	.	.	.	.	.	.	.	.	.
.	.	.	16a/	.	16dd\	.	.	.	.	.	.	.	.	.	.	.
8D\J	.	.	16dd/	.	16ff#\	.	8D\	pro	.	.	.	.	.	.	.	.
.	.	.	16ff#/JJ	.	16aa\JJ	.	.	.	.	.	.	.	.	.	.	.
=10	=10	=10	=10	=10	=10	=10	=10	=10	=10	=10	=10	=10	=10	=10	=10	=10
.	.	.	8qqff#/	.	.	.	.	.	.	.	.	.	.	.	.	.
!	!	!	!LO:LB:g=original	!	!	!	!	!	!	!	!	!	!	!	!	!
8AA/L	#	.	8ee\L	.	8r	.	8.C#X/	om-	1r	.	1r	.	1r	.	1ryy	1ryy
8AA/	.	.	8g/	.	4cc#X\	.	.	.	.	.	.	.	.	.	.	.
.	.	.	.	.	.	.	16E\	-ni-	.	.	.	.	.	.	.	.
8AA/	.	.	8g/	.	.	.	4G\	-bus	.	.	.	.	.	.	.	.
8BB/J	.	.	8g/J	.	8dd\	.	.	.	.	.	.	.	.	.	.	.
!	!	!	!	!	!	!	!LO:LB:g=original	!	!	!	!	!	!	!	!	!
8C#X/L	.	.	8g/	.	8ee\	.	4.B\	qua-	.	.	.	.	.	.	.	.
8C#/	7	.	4b/	.	4gg\	.	.	.	.	.	.	.	.	.	.	.
8C#/	5	.	.	.	.	.	.	.	.	.	.	.	.	.	.	.
8C#/J	.	.	16a/LL	.	16gg\LL	.	16A\LL	-re	.	.	.	.	.	.	.	.
.	.	.	16g/JJ	.	16ee\JJ	.	16G\JJ	.	.	.	.	.	.	.	.	.
=11	=11	=11	=11	=11	=11	=11	=11	=11	=11	=11	=11	=11	=11	=11	=11	=11
8D\L	.	.	8f#/L	.	8dd\L	.	8F#\	tri-	1r	.	1r	.	1r	.	1ryy	1ryy
8G\	.	.	16g/L	.	16b\L	.	16G\	-bu-	.	.	.	.	.	.	.	.
.	.	.	16b/JJ	.	16ee\JJ	.	16E\	-it	.	.	.	.	.	.	.	.
.	.	.	.	.	8qqdd/	.	8qqD/	.	.	.	.	.	.	.	.	.
8A\	4	.	8dd\L	.	4ee\	.	4C#X\	mi-	.	.	.	.	.	.	.	.
8AA/J	#	.	8cc#X\J	.	.	.	.	.	.	.	.	.	.	.	.	.
!	!	!	!	!	!LO:TX:t=P:problem=mixed beam	!	!	!	!	!	!	!	!	!	!	!
8D\L	.	.	8a/L	.	16dd\LL	.	4D\	-hi	.	.	.	.	.	.	.	.
.	.	.	.	.	16ff#\	.	.	.	.	.	.	.	.	.	.	.
8E\	.	.	8a/	.	16gg\	.	.	.	.	.	.	.	.	.	.	.
.	.	.	.	.	16a/JJ	.	.	.	.	.	.	.	.	.	.	.
8F#\	.	.	8a/	.	16aa\LL	.	4r	.	.	.	.	.	.	.	.	.
.	.	.	.	.	16dd\J	.	.	.	.	.	.	.	.	.	.	.
8D\J	.	.	8ff#\J	.	8ddd\J	.	.	.	.	.	.	.	.	.	.	.
=12	=12	=12	=12	=12	=12	=12	=12	=12	=12	=12	=12	=12	=12	=12	=12	=12
8AA/L	#	.	8e/L	.	16cc#X\LL	.	8.A\	ca-	1r	.	1r	.	1r	.	1ryy	1ryy
.	.	.	.	.	16cc#\J	.	.	.	.	.	.	.	.	.	.	.
!	!	!	!	!	!	!LO:DY:a	!	!	!	!	!	!	!	!	!	!
!	!	!	!	!	!	!LO:DY:t=f.	!	!	!	!	!	!	!	!	!	!
8AA/	.	.	16e/L	.	8cc#\J	f	.	.	.	.	.	.	.	.	.	.
.	.	.	16d/JJ	.	.	.	16A\	-li-	.	.	.	.	.	.	.	.
!	!	!	!	!	!LO:N:vis=16	!	!	!	!	!	!	!	!	!	!	!
8BB/	6|	.	8d/L	.	8r	.	4G#X\	-cem	.	.	.	.	.	.	.	.
8BB/J	.	.	8g#X/J	.	16dd\LL	.	.	.	.	.	.	.	.	.	.	.
.	.	.	.	.	16dd\JJ	.	.	.	.	.	.	.	.	.	.	.
*	*	*	*	*	*	*	*tuplet	*	*	*	*	*	*	*	*	*
!	!	!	!	!	!	!	!LO:N:vis=24	!	!	!	!	!	!	!	!	!
8C#X/L	n	.	8gn/L	.	(16ee\LL	.	12e\L	sa-	.	.	.	.	.	.	.	.
.	.	.	.	.	16ee\J)	.	.	.	.	.	.	.	.	.	.	.
!	!	!	!	!	!	!	!LO:N:vis=24	!	!	!	!	!	!	!	!	!
.	.	.	.	.	.	.	12d\	.	.	.	.	.	.	.	.	.
8C#/	5	.	8g/	.	8ee'\J	.	.	.	.	.	.	.	.	.	.	.
!	!	!	!	!	!	!	!LO:N:vis=24	!	!	!	!	!	!	!	!	!
.	.	.	.	.	.	.	12c#X\J	.	.	.	.	.	.	.	.	.
!	!	!	!	!	!	!	!	!	!	!	!	!	!	!	!	!
!	!	!	!	!	!LO:N:vis=16	!	!	!	!	!	!	!	!	!	!	!
8C#/	.	.	8g/	.	8r	.	12B\L	-lu-	.	.	.	.	.	.	.	.
.	.	.	.	.	.	.	12A\	.	.	.	.	.	.	.	.	.
8C#/J	.	.	8g/J	.	16ee\LL	.	.	.	.	.	.	.	.	.	.	.
.	.	.	.	.	.	.	12Gn\J	.	.	.	.	.	.	.	.	.
.	.	.	.	.	16ee\JJ	.	.	.	.	.	.	.	.	.	.	.
!	!	!	!	!	!LO:LB:g=original	!	!	!	!	!	!	!	!	!	!	!
=13	=13	=13	=13	=13	=13	=13	=13	=13	=13	=13	=13	=13	=13	=13	=13	=13
8D\L	4	.	8g/L	.	16ee\LL	.	4G\	-ta-	1r	.	1r	.	1r	.	1ryy	1ryy
.	.	.	.	.	16cc#X\J	.	.	.	.	.	.	.	.	.	.	.
8D\	.	.	8a/	.	8cc#\J	.	.	.	.	.	.	.	.	.	.	.
8D\	3	.	8a/	.	16r	.	8F#\	-ris	.	.	.	.	.	.	.	.
.	.	.	.	.	16dd\LL	.	.	.	.	.	.	.	.	.	.	.
8D\J	.	.	8a/J	.	16dd\	.	8A\	ac-	.	.	.	.	.	.	.	.
.	.	.	.	.	16ff#\JJ	.	.	.	.	.	.	.	.	.	.	.
.	.	.	8qqa/	.	8qqff#/	.	8qqA/	.	.	.	.	.	.	.	.	.
8GG/L	9 7	.	4.g/	.	4.ee\	.	4.G\	-ci-	.	.	.	.	.	.	.	.
8GG/	8 6	.	.	.	.	.	.	.	.	.	.	.	.	.	.	.
8GG/	.	.	.	.	.	.	.	.	.	.	.	.	.	.	.	.
8GG/J	7 5	.	8f#/	.	8dd\	.	8F#\	-pi-	.	.	.	.	.	.	.	.
!LO:LB:g=original	!	!	!	!	!	!	!	!	!	!	!	!	!	!	!	!
=14	=14	=14	=14	=14	=14	=14	=14	=14	=14	=14	=14	=14	=14	=14	=14	=14
8AA/L	#	.	8f#/L	.	8dd\L	.	4E\	-am	1r	.	1r	.	1r	.	1ryy	1ryy
8AA/	.	.	8e/	.	8cc#X\J	.	.	.	.	.	.	.	.	.	.	.
!	!	!	!	!	!	!	!LO:LB:g=original	!	!	!	!	!	!	!	!	!
8D/	6 4	.	8b/	.	4gg\	.	4B\	et	.	.	.	.	.	.	.	.
8D/J	.	.	8b/J	.	.	.	.	.	.	.	.	.	.	.	.	.
8C#X/L	7	.	4b/	.	4gg\	.	4B\	no-	.	.	.	.	.	.	.	.
8C#/	.	.	.	.	.	.	.	.	.	.	.	.	.	.	.	.
8C#/	6 4	.	8a/L	.	8ff#\L	.	(8A\	-men	.	.	.	.	.	.	.	.
8C#/J	5	.	8g/J	.	8ee\J	.	8G\)	.	.	.	.	.	.	.	.	.
!	!	!	!LO:LB:g=original	!	!	!	!	!	!	!	!	!	!	!	!	!
=15	=15	=15	=15	=15	=15	=15	=15	=15	=15	=15	=15	=15	=15	=15	=15	=15
8D\L	.	.	8f#/	.	8dd\	.	16F#\	Do-	1r	.	1r	.	1r	.	1ryy	1ryy
.	.	.	.	.	.	.	16G\	-mi-	.	.	.	.	.	.	.	.
8D\	.	.	4f#/	.	4dd\	.	8A\	-ni	.	.	.	.	.	.	.	.
8BB\	.	.	.	.	.	.	8D\	in	.	.	.	.	.	.	.	.
8GG#X\J	.	.	8f#/	.	8b\	.	8D\	vo-	.	.	.	.	.	.	.	.
8AA/L	#	.	4e/	.	4a/	.	16C#X\LL	-(ca)-	.	.	.	.	.	.	.	.
.	.	.	.	.	.	.	16E\	.	.	.	.	.	.	.	.	.
8AA/	6 4	.	.	.	.	.	16D\	.	.	.	.	.	.	.	.	.
.	.	.	.	.	.	.	16F#\JJ	.	.	.	.	.	.	.	.	.
8AA/	7	.	8r	.	8r	.	16E\LL	.	.	.	.	.	.	.	.	.
.	.	.	.	.	.	.	16G\	.	.	.	.	.	.	.	.	.
8AA/J	6 4	.	8ff#\	.	8aa\	.	16F#\	.	.	.	.	.	.	.	.	.
.	.	.	.	.	.	.	16A\JJ	.	.	.	.	.	.	.	.	.
=16	=16	=16	=16	=16	=16	=16	=16	=16	=16	=16	=16	=16	=16	=16	=16	=16
8AA/L	#	.	4ee\	.	8aa\L	.	16G\LL	.	1r	.	1r	.	1r	.	1ryy	1ryy
.	.	.	.	.	.	.	16B\	.	.	.	.	.	.	.	.	.
8AA/J	.	.	.	.	8gg\J	.	16A\	.	.	.	.	.	.	.	.	.
.	.	.	.	.	.	.	16c#X\JJ	.	.	.	.	.	.	.	.	.
8D/L	.	.	16dd\LL	.	16ff#\LL	.	16d\LL	.	.	.	.	.	.	.	.	.
.	.	.	16b\	.	16gg\	.	16B\	.	.	.	.	.	.	.	.	.
8C#X/J	.	.	16a\	.	16ff#\	.	16A\	.	.	.	.	.	.	.	.	.
.	.	.	16g\JJ	.	16ee\JJ	.	16G\JJ	.	.	.	.	.	.	.	.	.
8D\L	.	.	8f#/L	.	8dd\	.	16E\LL	.	.	.	.	.	.	.	.	.
.	.	.	.	.	.	.	16D\	.	.	.	.	.	.	.	.	.
8C#X\	.	.	16g/L	.	4a/	.	16E\	.	.	.	.	.	.	.	.	.
.	.	.	16e/JJ	.	.	.	16G\JJ	.	.	.	.	.	.	.	.	.
8D\	.	.	16d/LL	.	.	.	16F#\LL	.	.	.	.	.	.	.	.	.
.	.	.	16f#/	.	.	.	16D\	.	.	.	.	.	.	.	.	.
8C#\J	.	.	16g/	.	8a/	.	16E\	.	.	.	.	.	.	.	.	.
.	.	.	16e/JJ	.	.	.	16G\JJ	.	.	.	.	.	.	.	.	.
!	!	!	!	!	!	!	!LO:LB:g=original	!	!	!	!	!	!	!	!	!
=17	=17	=17	=17	=17	=17	=17	=17	=17	=17	=17	=17	=17	=17	=17	=17	=17
8D\L	.	.	8d/L	.	8a/L	.	24F#\LL	.	1r	.	1r	.	1r	.	1ryy	1ryy
.	.	.	.	.	.	.	24E\	.	.	.	.	.	.	.	.	.
.	.	.	.	.	.	.	24D\JJ	.	.	.	.	.	.	.	.	.
8GG\	6	.	8g/	.	16b/L	.	24B\LL	.	.	.	.	.	.	.	.	.
.	.	.	.	.	.	.	24A\	.	.	.	.	.	.	.	.	.
.	.	.	.	.	16ee/JJ	.	.	.	.	.	.	.	.	.	.	.
.	.	.	.	.	.	.	24G\JJ	.	.	.	.	.	.	.	.	.
8AA\	4	.	8f#/	.	8dd\L	.	8F#\L	.	.	.	.	.	.	.	.	.
8AA\J	#	.	8e/J	.	8cc\J	.	8E\J	.	.	.	.	.	.	.	.	.
4r	.	.	4r	.	4r	.	16d\LL	.	.	.	.	.	.	.	.	.
.	.	.	.	.	.	.	16B\	.	.	.	.	.	.	.	.	.
.	.	.	.	.	.	.	16A\	.	.	.	.	.	.	.	.	.
.	.	.	.	.	.	.	16G\JJ	.	.	.	.	.	.	.	.	.
!	!	!	!	!	!LO:LB:g=original	!	!	!	!	!	!	!	!	!	!	!
8r	.	.	8r	.	16r	.	16F#\LL	.	.	.	.	.	.	.	.	.
.	.	.	.	.	16gg\LL	.	16E\	.	.	.	.	.	.	.	.	.
8A\	#	.	8g/	.	16ff#\	.	16D\	.	.	.	.	.	.	.	.	.
.	.	.	.	.	16ee\JJ	.	16C#X\JJ	.	.	.	.	.	.	.	.	.
=18	=18	=18	=18	=18	=18	=18	=18	=18	=18	=18	=18	=18	=18	=18	=18	=18
!	!	!	!LO:TX:t=P:problem=mixed beam	!	!	!	!	!	!	!	!	!	!	!	!	!
!	!	!	!	!	!	!LO:DY:b:t=f&colon;	!	!	!	!	!	!	!	!	!	!
!	!	!LO:DY:a	!	!LO:DY:b:t=f&colon;	!	!	!	!	!	!	!	!	!	!	!	!
4D\	.	f	16aa\LL	f	16aa\LL	f	4D\	-bo	1r	.	1r	.	1r	.	1ryy	1ryy
.	.	.	16ff#\J	.	16ff#\J	.	.	.	.	.	.	.	.	.	.	.
.	.	.	8f#/J	.	8dd\J	.	.	.	.	.	.	.	.	.	.	.
8F#\L	6	.	8a/L	.	8dd\L	.	4r	.	.	.	.	.	.	.	.	.
8E\J	.	.	8g/J	.	8dd\J	.	.	.	.	.	.	.	.	.	.	.
4D\	.	.	8f#/L	.	16aa\LL	.	2r	.	.	.	.	.	.	.	.	.
.	.	.	.	.	16ff#\	.	.	.	.	.	.	.	.	.	.	.
.	.	.	8aa\J	.	16ddd\	.	.	.	.	.	.	.	.	.	.	.
.	.	.	.	.	16aa\JJ	.	.	.	.	.	.	.	.	.	.	.
!LO:LB:g=original	!	!	!	!	!	!	!	!	!	!	!	!	!	!	!	!
8r	.	.	16gg\LL	.	16gg\LL	.	.	.	.	.	.	.	.	.	.	.
.	.	.	16ee\	.	16ee\	.	.	.	.	.	.	.	.	.	.	.
8G\	#4 2	.	16cc#X\	.	16cc#X\	.	.	.	.	.	.	.	.	.	.	.
.	.	.	16a\JJ	.	16a\JJ	.	.	.	.	.	.	.	.	.	.	.
!	!	!	!	!	!	!	!	!	!	!	!	!	!	!	!	!
=19	=19	=19	=19	=19	=19	=19	=19	=19	=19	=19	=19	=19	=19	=19	=19	=19
8F#\L	6	.	8dd\L	.	16dd\LL	.	1r	.	1r	.	1r	.	1r	.	1ryy	1ryy
.	.	.	.	.	16a\	.	.	.	.	.	.	.	.	.	.	.
8D\	.	.	8ff#\	.	16ff#\	.	.	.	.	.	.	.	.	.	.	.
.	.	.	.	.	16aa\JJ	.	.	.	.	.	.	.	.	.	.	.
.	.	.	.	.	8qqaa/	.	.	.	.	.	.	.	.	.	.	.
8E\	6|	.	8cc#X\	.	4gg\	.	.	.	.	.	.	.	.	.	.	.
8AA\J	.	.	8ee\J	.	.	.	.	.	.	.	.	.	.	.	.	.
!	!	!	!LO:LB:g=original	!	!	!	!	!	!	!	!	!	!	!	!	!
!	!	!	!LO:TX:t=P:problem=mixed beam	!	!	!	!	!	!	!	!	!	!	!	!	!
4D\	.	.	8dd\L	.	16ff#\LL	.	.	.	.	.	.	.	.	.	.	.
.	.	.	.	.	16dd\	.	.	.	.	.	.	.	.	.	.	.
.	.	.	16f#/L	.	16a\	.	.	.	.	.	.	.	.	.	.	.
.	.	.	16g/JJ	.	16b\JJ	.	.	.	.	.	.	.	.	.	.	.
.	.	.	.	.	8qqa/	.	.	.	.	.	.	.	.	.	.	.
8E\L	6|	.	8c#X/L	.	4g/	.	.	.	.	.	.	.	.	.	.	.
8AA\J	.	.	8e/J	.	.	.	.	.	.	.	.	.	.	.	.	.
=20	=20	=20	=20	=20	=20	=20	=20	=20	=20	=20	=20	=20	=20	=20	=20	=20
!	!	!	!	!	!LO:TX:t=P:problem=mixed beam	!	!	!	!	!	!	!	!	!	!	!
4D\	.	.	8d/L	.	8f#/L	.	1r	.	1r	.	1r	.	1r	.	1ryy	1ryy
.	.	.	16f#/L	.	16dd/L	.	.	.	.	.	.	.	.	.	.	.
.	.	.	16e/JJ	.	16cc#X/JJ	.	.	.	.	.	.	.	.	.	.	.
!	!	!	!LO:TX:t=P:problem=mixed beam	!	!	!	!	!	!	!	!	!	!	!	!	!
4r	.	.	16g/LL	.	16ee\LL	.	.	.	.	.	.	.	.	.	.	.
.	.	.	16f#/	.	16dd\	.	.	.	.	.	.	.	.	.	.	.
.	.	.	16dd\	.	16ff#\	.	.	.	.	.	.	.	.	.	.	.
.	.	.	16cc#X\JJ	.	16ee\JJ	.	.	.	.	.	.	.	.	.	.	.
8r	.	.	16ee\LL	.	16gg\LL	.	.	.	.	.	.	.	.	.	.	.
.	.	.	16dd\	.	16ff#\	.	.	.	.	.	.	.	.	.	.	.
16F#\LL	.	.	16ff#\	.	16aa\	.	.	.	.	.	.	.	.	.	.	.
16G\JJ	.	.	16dd\JJ	.	16bb\JJ	.	.	.	.	.	.	.	.	.	.	.
.	.	.	8qqf#/	.	8qqdd/	.	.	.	.	.	.	.	.	.	.	.
8A\L	#4r	.	4e/	.	4cc#X\	.	.	.	.	.	.	.	.	.	.	.
8AA/J	.	.	.	.	.	.	.	.	.	.	.	.	.	.	.	.
!	!	!	!	!	!LO:LB:g=original	!	!	!	!	!	!	!	!	!	!	!
=21	=21	=21	=21	=21	=21	=21	=21	=21	=21	=21	=21	=21	=21	=21	=21	=21
!	!	!	!	!	!	!	!	!	!	!	!	!	!	!	!	!
8D\L	.	.	4f#/	.	8dd\L	.	4r	.	1r	.	1r	.	1r	.	1ryy	1ryy
8D\	.	.	.	.	8d/J	.	.	.	.	.	.	.	.	.	.	.
!	!	!	!	!LO:DY:a	!	!LO:DY:a	!	!	!	!	!	!	!	!	!	!
!	!	!	!	!LO:DY:t=p&colon;	!	!LO:DY:t=p&colon;	!	!	!	!	!	!	!	!	!	!
8D\	.	.	8dd\L	p	8ff#\L	p	8D\	vo-	.	.	.	.	.	.	.	.
8D\J	.	.	8dd\J	.	8ff#\J	.	8d\	-ta	.	.	.	.	.	.	.	.
8D\L	4 2	.	8ee\L	.	8gg\L	.	8d\	me-	.	.	.	.	.	.	.	.
8D\	.	.	8ee\	.	8gg\	.	8c\	-a	.	.	.	.	.	.	.	.
8D\	7	.	8ccn\	.	8aa\	.	16D\	Do-	.	.	.	.	.	.	.	.
.	.	.	.	.	.	.	16F#\	-mi-	.	.	.	.	.	.	.	.
8D\J	.	.	8cc\J	.	8aa\J	.	(16A\LL	-no	.	.	.	.	.	.	.	.
.	.	.	.	.	.	.	16c\JJ)	.	.	.	.	.	.	.	.	.
=22	=22	=22	=22	=22	=22	=22	=22	=22	=22	=22	=22	=22	=22	=22	=22	=22
8F#\L	.	.	8cc\L	.	8aa\L	.	8c\	red-	1r	.	1r	.	1r	.	1ryy	1ryy
*	*	*	*	*	*	*	*custos:G	*	*	*	*	*	*	*	*	*
8G\J	.	.	8b\J	.	8gg\J	.	8B\	-dam	.	.	.	.	.	.	.	.
!	!	!	!	!	!	!	!LO:LB:g=original	!	!	!	!	!	!	!	!	!
8r	.	.	8r	.	8r	.	16G\LL	co-	.	.	.	.	.	.	.	.
.	.	.	.	.	.	.	16B\JJ	.	.	.	.	.	.	.	.	.
8D\	.	.	8dd\	.	8bb\	.	8d\	-ram	.	.	.	.	.	.	.	.
.	.	.	8qqdd/	.	8qqgg/	.	8qqd/	.	.	.	.	.	.	.	.	.
8E\L	.	.	4.cc\	.	4.aa\	.	4.c\	om-	.	.	.	.	.	.	.	.
8F#\	.	.	.	.	.	.	.	.	.	.	.	.	.	.	.	.
8G\	.	.	.	.	.	.	.	.	.	.	.	.	.	.	.	.
8E\J	.	.	8b\	.	8gg\	.	8B\	-ni	.	.	.	.	.	.	.	.
!LO:LB:g=original	!	!	!	!	!	!	!	!	!	!	!	!	!	!	!	!
=23	=23	=23	=23	=23	=23	=23	=23	=23	=23	=23	=23	=23	=23	=23	=23	=23
.	.	.	.	.	.	.	8qqB/	.	.	.	.	.	.	.	.	.
8C/L	6	.	8ee\L	.	4ccc\	.	4.A\	po-	1r	.	1r	.	1r	.	1ryy	1ryy
8C/	.	.	8ee\	.	.	.	.	.	.	.	.	.	.	.	.	.
8C#X/	5	.	8ee\	.	4bb\	.	.	.	.	.	.	.	.	.	.	.
8C#/J	.	.	8gg\J	.	.	.	16G\	-pu-	.	.	.	.	.	.	.	.
.	.	.	.	.	.	.	16G\	-lo	.	.	.	.	.	.	.	.
!	!	!	!	!	!	!LO:DY:b:t=f&colon;	!	!	!	!	!	!	!	!	!	!
8D\L	6 4	.	8gg\L	.	8bb\L	f	8G\	e-	.	.	.	.	.	.	.	.
8D\	5 3	.	8ff#\J	.	8aa\J	.	8F#\	-jus	.	.	.	.	.	.	.	.
!	!	!	!LO:LB:g=original	!	!	!	!	!	!	!	!	!	!	!	!	!
*	*	*	*	*	*Xtuplet	*	*	*	*	*	*	*	*	*	*	*
!	!	!	!LO:TX:t=P:problem= problem klamry łukowej	!	!	!	!	!	!	!	!	!	!	!	!	!
8F#\	.	.	24cc\LL	.	24aa\LL	.	4r	.	.	.	.	.	.	.	.	.
.	.	.	24ee\	.	24gg\	.	.	.	.	.	.	.	.	.	.	.
!	!	!	!	!LO:DY:b:t=f&colon;	!	!	!	!	!	!	!	!	!	!	!	!
.	.	.	24dd\JJ	f	24ff#\JJ	.	.	.	.	.	.	.	.	.	.	.
!	!	!	!LO:TX:t=P:problem= problem klamry łukowej	!	!	!	!	!	!	!	!	!	!	!	!	!
8F#\J	.	.	24cc\LL	.	24ee\LL	.	.	.	.	.	.	.	.	.	.	.
.	.	.	24b\	.	24dd\	.	.	.	.	.	.	.	.	.	.	.
.	.	.	24a\JJ	.	24cc\JJ	.	.	.	.	.	.	.	.	.	.	.
*	*	*	*	*	*tuplet	*	*	*	*	*	*	*	*	*	*	*
=24	=24	=24	=24	=24	=24	=24	=24	=24	=24	=24	=24	=24	=24	=24	=24	=24
!	!	!	!	!	!	!LO:DY:a	!	!	!	!	!	!	!	!	!	!
!	!	!	!	!LO:DY:b:t=p&colon;	!	!LO:DY:t=p&colon;	!	!	!	!	!	!	!	!	!	!
8G\L	.	.	8g/L	p	16b\LL	p	8.d\	Pre-	1r	.	1r	.	1r	.	1ryy	1ryy
.	.	.	.	.	16dd\JJ	.	.	.	.	.	.	.	.	.	.	.
8GG/	.	.	8B/	.	4g/	.	.	.	.	.	.	.	.	.	.	.
.	.	.	.	.	.	.	16B\	-ti-	.	.	.	.	.	.	.	.
8BB/	.	.	8d/	.	.	.	8G\	-o-	.	.	.	.	.	.	.	.
8C/J	.	.	8e/J	.	8g/	.	8G\	-sa	.	.	.	.	.	.	.	.
4D/	.	.	8A/L	.	16f#/LL	.	(16F#\LL	in	.	.	.	.	.	.	.	.
.	.	.	.	.	16d/	.	16D\JJ)	.	.	.	.	.	.	.	.	.
.	.	.	16d/L	.	16g/	.	16G\LL	con-	.	.	.	.	.	.	.	.
.	.	.	16g/JJ	.	16b/JJ	.	16B\JJ	.	.	.	.	.	.	.	.	.
8r	.	.	8b/L	.	8dd\L	.	8d\	-spe-	.	.	.	.	.	.	.	.
8F#\	.	.	8a/J	.	8cc\J	.	8c\	-ctu	.	.	.	.	.	.	.	.
=25	=25	=25	=25	=25	=25	=25	=25	=25	=25	=25	=25	=25	=25	=25	=25	=25
!LO:TX:t=P:problem=mixed beam	!	!	!	!	!	!	!	!	!	!	!	!	!	!	!	!
8G\L	n3	.	4a/	.	4cc\	.	8.c\	Do-	1r	.	1r	.	1r	.	1ryy	1ryy
8GG/	.	.	.	.	.	.	.	.	.	.	.	.	.	.	.	.
.	.	.	.	.	.	.	16B\	-mi-	.	.	.	.	.	.	.	.
8G\	.	.	8g/L	.	8b\L	.	4B\	-ni	.	.	.	.	.	.	.	.
8F#\J	.	.	8dd/J	.	8gg\J	.	.	.	.	.	.	.	.	.	.	.
!	!	!	!	!	!LO:LB:g=original	!	!LO:LB:g=original	!	!	!	!	!	!	!	!	!
8G\L	-	.	8dd\L	.	8gg\L	.	4B-X\	mors	.	.	.	.	.	.	.	.
8G\	.	.	8dd\	.	8gg\	.	.	.	.	.	.	.	.	.	.	.
8F#\	.	.	8dd\	.	8aa\	.	8A\L	San-	.	.	.	.	.	.	.	.
8G\J	.	.	8dd\J	.	8gg\J	.	8B-X\J	.	.	.	.	.	.	.	.	.
=26	=26	=26	=26	=26	=26	=26	=26	=26	=26	=26	=26	=26	=26	=26	=26	=26
8E-X\L	6	.	8cc\L	.	8gg\L	.	4c\	-cto-	1r	.	1r	.	1r	.	1ryy	1ryy
8E-\	.	.	8cc\	.	8gg\	.	.	.	.	.	.	.	.	.	.	.
8C\	.	.	8ee-X\	.	8gg\	.	16c\LL	.	.	.	.	.	.	.	.	.
.	.	.	.	.	.	.	16A\JJ	.	.	.	.	.	.	.	.	.
8C\J	.	.	8ee-\J	.	8gg\J	.	16B-X\LL	-rum	.	.	.	.	.	.	.	.
.	.	.	.	.	.	.	16G\JJ	.	.	.	.	.	.	.	.	.
8D\L	6 4	.	8dd\L	.	8gg\L	.	8B-X\	e-	.	.	.	.	.	.	.	.
8D\	.	.	8dd\	.	8ff#\	.	8A\	-jus	.	.	.	.	.	.	.	.
8D\	5 3	.	8dd\	.	8ff#\	.	8r	.	.	.	.	.	.	.	.	.
8D\J	.	.	8a\J	.	8ff#\J	.	8D\	o	.	.	.	.	.	.	.	.
=27	=27	=27	=27	=27	=27	=27	=27	=27	=27	=27	=27	=27	=27	=27	=27	=27
8D\L	-6 4	.	8g/L	.	8b-X\L	.	4.G\	Do-	1r	.	1r	.	1r	.	1ryy	1ryy
8D\	.	.	8g/	.	8b-\	.	.	.	.	.	.	.	.	.	.	.
8D\	.	.	8g/	.	8b-\	.	.	.	.	.	.	.	.	.	.	.
8D\J	.	.	8g/J	.	8b-\J	.	16A\LL	-mi-	.	.	.	.	.	.	.	.
.	.	.	.	.	.	.	16B-X\JJ	.	.	.	.	.	.	.	.	.
!LO:LB:g=original	!	!	!	!	!	!	!	!	!	!	!	!	!	!	!	!
8D\L	5	.	8a/L	.	8cc\L	.	4A\	-ne	.	.	.	.	.	.	.	.
8D\	.	.	8a/	.	8cc\	.	.	.	.	.	.	.	.	.	.	.
!	!	!	!	!	!	!	!LO:LB:g=original	!	!	!	!	!	!	!	!	!
8D\	.	.	8a/	.	8cc\	.	4D\	o	.	.	.	.	.	.	.	.
8D\J	.	.	8a/J	.	8cc\J	.	.	.	.	.	.	.	.	.	.	.
=28	=28	=28	=28	=28	=28	=28	=28	=28	=28	=28	=28	=28	=28	=28	=28	=28
8D\L	7	.	8cc\L	.	8ff#\L	.	4.A\	Do-	1r	.	1r	.	1r	.	1ryy	1ryy
8D\	.	.	8cc\	.	8ff#\	.	.	.	.	.	.	.	.	.	.	.
8D\	.	.	8cc\	.	8ff#\	.	.	.	.	.	.	.	.	.	.	.
8D\J	.	.	8cc\J	.	8ff#\J	.	16B-X\LL	-mi-	.	.	.	.	.	.	.	.
.	.	.	.	.	.	.	16c\JJ	.	.	.	.	.	.	.	.	.
!	!	!	!	!	!	!	!LO:TX:t=P:problem=zapis niejednoznaczny	!	!	!	!	!	!	!	!	!
8GG/L	-	.	8b-X\L	.	8gg\L	.	4A\ 4B-X	-ne	.	.	.	.	.	.	.	.
8GG/	.	.	8b-\	.	8gg\	.	.	.	.	.	.	.	.	.	.	.
!	!	!	!	!	!	!	!LO:TX:t=P:problem=skreślone łącznie 5 miar	!	!	!	!	!	!	!	!	!
8BB-X/	6	.	8dd\	.	8gg\	.	8d\L	qui-	.	.	.	.	.	.	.	.
8BB-/J	.	.	8dd\J	.	8gg\J	.	8G\J	-a	.	.	.	.	.	.	.	.
!	!	!	!LO:LB:g=original	!	!	!	!	!	!	!	!	!	!	!	!	!
=29	=29	=29	=29	=29	=29	=29	=29	=29	=29	=29	=29	=29	=29	=29	=29	=29
4.C/	-	.	4.ee-X\	.	4gg\	.	8e-X\	e-	1r	.	1r	.	1r	.	1ryy	1ryy
.	.	.	.	.	.	.	8qqd/	.	.	.	.	.	.	.	.	.
.	.	.	.	.	.	.	8c\	-go	.	.	.	.	.	.	.	.
.	.	.	.	.	.	.	8qqB/	.	.	.	.	.	.	.	.	.
.	.	.	.	.	8ff#\L	.	8A\	ser-	.	.	.	.	.	.	.	.
.	.	.	.	.	.	.	8qqA/	.	.	.	.	.	.	.	.	.
8C/	6:5	.	8ee-\	.	8gg\J	.	8G\	-vus	.	.	.	.	.	.	.	.
8D/L	.	.	8a/L	.	8cc\L	.	8F#\	tu-	.	.	.	.	.	.	.	.
8GG/	.	.	16g/L	.	16b-X\L	.	8G\	-us	.	.	.	.	.	.	.	.
.	.	.	16a/JJ	.	16cc\JJ	.	.	.	.	.	.	.	.	.	.	.
8BBn/	6	.	8g/L	.	16dd\LL	.	8r	.	.	.	.	.	.	.	.	.
.	.	.	.	.	16gg\J	.	.	.	.	.	.	.	.	.	.	.
8GG/J	.	.	8g/J	.	8bn\J	.	16D\	e-	.	.	.	.	.	.	.	.
.	.	.	.	.	.	.	16D\	-go	.	.	.	.	.	.	.	.
=30	=30	=30	=30	=30	=30	=30	=30	=30	=30	=30	=30	=30	=30	=30	=30	=30
8C/L	.	.	8g/L	.	8cc\L	.	4En\	ser-	1r	.	1r	.	1r	.	1ryy	1ryy
8C/	.	.	8g/J	.	8ee\J	.	.	.	.	.	.	.	.	.	.	.
8C/	.	.	4r	.	4r	.	24E\LL	.	.	.	.	.	.	.	.	.
.	.	.	.	.	.	.	24F#\	.	.	.	.	.	.	.	.	.
.	.	.	.	.	.	.	24G\JJ	.	.	.	.	.	.	.	.	.
8C/J	.	.	.	.	.	.	24A\LL	-vus	.	.	.	.	.	.	.	.
.	.	.	.	.	.	.	24B\	.	.	.	.	.	.	.	.	.
.	.	.	.	.	.	.	24c\JJ	.	.	.	.	.	.	.	.	.
!	!	!	!	!	!LO:LB:g=original	!	!	!	!	!	!	!	!	!	!	!
8D\L	4	.	8g/L	.	8b/L	.	8G\	tu-	.	.	.	.	.	.	.	.
8D\J	3	.	8f#/	.	8a/J	.	8F#\	-us	.	.	.	.	.	.	.	.
4D\	.	.	8a/	.	8d\L 8a 8ff#	.	8r	.	.	.	.	.	.	.	.	.
.	.	.	8cc/J	.	8aa\J	.	16A\LL	et	.	.	.	.	.	.	.	.
.	.	.	.	.	.	.	16c\JJ	.	.	.	.	.	.	.	.	.
=31	=31	=31	=31	=31	=31	=31	=31	=31	=31	=31	=31	=31	=31	=31	=31	=31
8r	.	.	8.cc\L	.	8.aa\L	.	8.c\	Fi-	1r	.	1r	.	1r	.	1ryy	1ryy
8D\	7	.	.	.	.	.	.	.	.	.	.	.	.	.	.	.
.	.	.	16b\K	.	16gg\K	.	16B\	-li-	.	.	.	.	.	.	.	.
4G\	.	.	8b\	.	8gg\	.	8B\	-us	.	.	.	.	.	.	.	.
!	!	!	!	!	!	!	!LO:LB:g=original	!	!	!	!	!	!	!	!	!
.	.	.	8a\J	.	8cc\J	.	16F#\LL	et	.	.	.	.	.	.	.	.
.	.	.	.	.	.	.	16A\JJ	.	.	.	.	.	.	.	.	.
8r	.	.	8.f#/L	.	8.cc\L	.	8.A\	Fi-	.	.	.	.	.	.	.	.
8D/	7	.	.	.	.	.	.	.	.	.	.	.	.	.	.	.
.	.	.	16g/K	.	16b\K	.	16G\	-li-	.	.	.	.	.	.	.	.
8GG/L	.	.	8.g/	.	8b\	.	8G\	-us	.	.	.	.	.	.	.	.
8BB/J	.	.	.	.	8dd\J	.	8D\	an-	.	.	.	.	.	.	.	.
.	.	.	16g/Jk	.	.	.	.	.	.	.	.	.	.	.	.	.
=32	=32	=32	=32	=32	=32	=32	=32	=32	=32	=32	=32	=32	=32	=32	=32	=32
8C/L	.	.	8g/L	.	8cc\L	.	16C\LL	.	1r	.	1r	.	1r	.	1ryy	1ryy
.	.	.	.	.	.	.	16AA\	.	.	.	.	.	.	.	.	.
8C/	.	.	8g/	.	8ee\	.	16BB\	.	.	.	.	.	.	.	.	.
.	.	.	.	.	.	.	16C\JJ	.	.	.	.	.	.	.	.	.
8C/	.	.	8g/	.	8ee\	.	16Fn\LL	.	.	.	.	.	.	.	.	.
.	.	.	.	.	.	.	16G\	.	.	.	.	.	.	.	.	.
8C/J	.	.	8g/J	.	8ee\J	.	16A\	.	.	.	.	.	.	.	.	.
.	.	.	.	.	.	.	16B\JJ	.	.	.	.	.	.	.	.	.
4C/	.	.	4g/	.	4ee\	.	16c\LL	.	.	.	.	.	.	.	.	.
.	.	.	.	.	.	.	16e\	.	.	.	.	.	.	.	.	.
.	.	.	.	.	.	.	16A\	.	.	.	.	.	.	.	.	.
.	.	.	.	.	.	.	16c\JJ	.	.	.	.	.	.	.	.	.
8r	.	.	8r	.	8r	.	16F\LL	.	.	.	.	.	.	.	.	.
.	.	.	.	.	.	.	16A\	.	.	.	.	.	.	.	.	.
8D\	.	.	8d/ 8a	.	8ff#\	.	16D\	.	.	.	.	.	.	.	.	.
.	.	.	.	.	.	.	16c\JJ	.	.	.	.	.	.	.	.	.
!LO:LB:g=original	!	!	!	!	!	!	!	!	!	!	!	!	!	!	!	!
=33	=33	=33	=33	=33	=33	=33	=33	=33	=33	=33	=33	=33	=33	=33	=33	=33
8G\L	.	.	8b\L	.	8gg\L	.	16B\LL	-cil-	1r	.	1r	.	1r	.	1ryy	1ryy
.	.	.	.	.	.	.	16G\JJ	.	.	.	.	.	.	.	.	.
8C\	.	.	16cc\L	.	16dd\L	.	16A\LL	-lae	.	.	.	.	.	.	.	.
.	.	.	16a\JJ	.	16cc\JJ	.	16E\JJ	.	.	.	.	.	.	.	.	.
8D\	6 4	.	8g/L	.	8b\L	.	(8G\L	tu-	.	.	.	.	.	.	.	.
8D\J	5 3	.	8f#/J	.	8a\J	.	8F#\J)	.	.	.	.	.	.	.	.	.
4GG/	.	.	4B/	.	4g/	.	8G\	-ae	.	.	.	.	.	.	.	.
.	.	.	.	.	.	.	8G\	an-	.	.	.	.	.	.	.	.
4r	.	.	4r	.	4r	.	8G\	-cil-	.	.	.	.	.	.	.	.
.	.	.	.	.	.	.	8G\	-lae	.	.	.	.	.	.	.	.
!	!	!	!	!	!	!	!LO:LB:g=original	!	!	!	!	!	!	!	!	!
=34	=34	=34	=34	=34	=34	=34	=34	=34	=34	=34	=34	=34	=34	=34	=34	=34
!	!	!	!	!	!	!LO:DY:a	!LO:SIC:s=an	!	!	!	!	!	!	!	!	!
!	!	!	!	!	!	!LO:DY:t=f&colon;	!	!	!	!	!	!	!	!	!	!
8r	.	.	8r	.	8r	f	2G;\	a-	1r	.	1r	.	1r	.	1ryy	1ryy
!	!	!	!LO:LB:g=original	!	!	!	!	!	!	!	!	!	!	!	!	!
!	!	!	!	!	!LO:N:vis=32.	!	!	!	!	!	!	!	!	!	!	!
16.G\LL	.	.	16.g/LL	.	16.g/LL	.	.	.	.	.	.	.	.	.	.	.
!	!	!	!	!LO:DY:b:t=f&colon;	!	!	!	!	!	!	!	!	!	!	!	!
32B\JJk	.	.	32b/JJk	f	32b/JJk	.	.	.	.	.	.	.	.	.	.	.
16.E\LL	.	.	16.e/LL	.	16.e/LL	.	.	.	.	.	.	.	.	.	.	.
32G\K	.	.	32g/K	.	32g/K	.	.	.	.	.	.	.	.	.	.	.
16.C#X\	.	.	16.c#X/	.	16.c#X/	.	.	.	.	.	.	.	.	.	.	.
32E\JJk	.	.	32e/JJk	.	32e/JJk	.	.	.	.	.	.	.	.	.	.	.
*2\right	*	*	*	*	*	*	*	*	*	*	*	*	*	*	*	*
2D;\	.	.	4d/	.	4d/	.	8G\	.	.	.	.	.	.	.	.	.
.	.	.	.	.	.	.	16G\	-cil-	.	.	.	.	.	.	.	.
.	.	.	.	.	.	.	16G\	-lae	.	.	.	.	.	.	.	.
!	!	!	!	!	!LO:TX:b:t=V.S.	!	!	!	!	!	!	!	!	!	!	!
.	.	.	4r;	.	4r;	.	4A\	tu-	.	.	.	.	.	.	.	.
!	!	!	!	!	!LO:LB:g=original	!	!	!	!	!	!	!	!	!	!	!
=35	=35	=35	=35	=35	=35	=35	=35	=35	=35	=35	=35	=35	=35	=35	=35	=35
!	!	!	!LO:TX:t=P:problem=mixed beam	!LO:DY:a	!	!LO:DY:a	!	!	!	!	!	!	!	!	!	!
!	!	!LO:DY:a:t=f&colon;	!	!LO:DY:t=f&colon;	!	!LO:DY:t=f&colon;	!	!	!	!	!	!	!	!	!	!
8GG/L	.	f	8G/L	f	8G/L	f	8G\	-ae	8r	.	8r	.	8r	.	1ryy	1ryy
8E\	.	.	8b/	.	16g/L	.	16E\	Di-	16B\	Di-	16g\	Di-	16ee\	Di-	.	.
.	.	.	.	.	16b/JJ	.	16E\	-ru	16B\	-ru	16g\	-ru	16ee\	-ru	.	.
8E\	.	.	8b/	.	8ee\L	.	8E\	pi-	8B\	pi-	8g\	pi-	8ee\	pi-	.	.
8E\J	.	.	8gg/J	.	8b\J	.	8E\	-sti	8B\	-sti	8g\	-sti	8b\	-sti	.	.
8E\L	6 4	.	8aa\L	.	8cc\L	.	8E\	cin-	8e\	vin-	8a\	Vin-	8cc\	vin-	.	.
8E\	6 3	.	8gg\	.	8b\J	.	16E\	-vu-	16e\	-cu-	16g\	-cu-	16b\	-cu-	.	.
.	.	.	.	.	.	.	16E\	-la	16e\	-la	16g\	-la	16b\	-la	.	.
.	.	.	.	.	.	.	.	.	.	.	8qqg/	.	8qqb/	.	.	.
8E\	4_ 2_	.	8ff#\	.	8.a/L	.	8E\L	me-	4B\	me-	4f#\	me-	4a\	me-	.	.
8D#X\J	.	.	8f#/J	.	.	.	8D#X\J	.	.	.	.	.	.	.	.	.
.	.	.	.	.	32g/LL	.	.	.	.	.	.	.	.	.	.	.
.	.	.	.	.	32a/JJJ	.	.	.	.	.	.	.	.	.	.	.
=36	=36	=36	=36	=36	=36	=36	=36	=36	=36	=36	=36	=36	=36	=36	=36	=36
8E\L	.	.	8e/L	.	8g/L	.	8E\	-a	8B\	-a	8e\	-a	8g\	-a	1ryy	1ryy
8E\	.	.	8g/	.	8b/J	.	16E\	ti-	16G/	ti-	16e\	ti-	16b\	ti-	.	.
.	.	.	.	.	.	.	16E\	-bi	16G/	-bi	16e\	-bi	16b\	-bi	.	.
8E\	.	.	8g/	.	16ee\LL	.	8E\	sa-	8G/	Sa-	8e\	sa-	8b\	sa-	.	.
.	.	.	.	.	16ee\	.	.	.	.	.	.	.	.	.	.	.
!	!	!	!	!	!	!	!	!	!LO:LB:g=original	!	!	!	!	!	!	!
8E\J	.	.	8b/J	.	16ff#\	.	16E\	-cri-	16B\	-cri-	16f#\	-cri-	16dd#X\	-cri-	.	.
.	.	.	.	.	16gg\JJ	.	16E\	-fi-	16B\	-fi-	16g\	-fi-	16ee\	-fi-	.	.
!	!	!	!	!	!	!	!	!	!	!	!LO:LB:g=original	!	!LO:LB:g=original	!	!	!
8BB/L	.	.	8dd#X\L	.	8aa\L	.	8BB/	-ca-	8d#X\	-ca-	8a\	-ca-	8ff#\	-ca-	.	.
8E/J	.	.	16ee\L	.	8gg\J	.	8E/	-bo	8e\	-bo	8g\	-bo	8ee\	-bo	.	.
.	.	.	16b\JJ	.	.	.	.	.	.	.	.	.	.	.	.	.
!	!	!	!	!	!	!	!LO:LB:g=original	!	!	!	!	!	!	!	!	!
4C/	.	.	8b\L	.	8.ee\L	.	8.C/	ho-	8.e\	ho-	8.b\	ho-	8.ee\	ho-	.	.
.	.	.	8a\J	.	.	.	.	.	.	.	.	.	.	.	.	.
.	.	.	.	.	32dd#X\LL	.	16c\	-sti-	16e\	-sti-	16a\	-sti-	16ee\	-sti-	.	.
.	.	.	.	.	32ee\JJJ	.	.	.	.	.	.	.	.	.	.	.
=37	=37	=37	=37	=37	=37	=37	=37	=37	=37	=37	=37	=37	=37	=37	=37	=37
4BB/	#	.	4b\	.	8dd#X\L	.	4B\	-a	4f#\	-am	4b\	-am	4dd#X\	-am	1ryy	1ryy
.	.	.	.	.	8bb\J	.	.	.	.	.	.	.	.	.	.	.
4AA#X/	7	.	4cc#X\	.	8.ee\L	.	4A#X\	lau-	4c#X\	Lau-	4g\	lau-	4ee\	lau-	.	.
.	.	.	.	.	32dd#\LL	.	.	.	.	.	.	.	.	.	.	.
.	.	.	.	.	32ee\JJJ	.	.	.	.	.	.	.	.	.	.	.
4BB/	#	.	4f#/	.	4dd#X\	.	4B\	-dis	4d#X\	-dis	4f#\	-dis	4dd#\	-dis	.	.
8r	.	.	4r	.	4r	.	4BB/	et	4r	.	4r	.	4r	.	.	.
!LO:TX:t=e	!	!	!	!	!	!	!	!	!	!	!	!	!	!	!	!
!	!	!LO:DY:a:t=f&colon;	!	!	!	!	!	!	!	!	!	!	!	!	!	!
8BB/	.	f	.	.	.	.	.	.	.	.	.	.	.	.	.	.
!LO:LB:g=original	!	!	!	!	!	!	!	!	!	!	!	!	!	!	!	!
=38	=38	=38	=38	=38	=38	=38	=38	=38	=38	=38	=38	=38	=38	=38	=38	=38
!	!	!	!	!	!	!LO:DY:a	!	!	!	!	!	!	!LO:TX:a:t=1	!	!	!
!	!	!	!	!	!	!LO:DY:t=p&colon;	!	!	!	!	!	!	!	!	!	!
4.D#X\	.	.	4r	.	2r	p	16B\LL	no-	1r	.	1r	.	1r	.	1ryy	1ryy
.	.	.	.	.	.	.	16A\JJ	.	.	.	.	.	.	.	.	.
.	.	.	.	.	.	.	16c\LL	-men	.	.	.	.	.	.	.	.
.	.	.	.	.	.	.	16B\JJ	.	.	.	.	.	.	.	.	.
!	!	!	!	!LO:DY:b:t=p&colon;	!	!	!	!	!	!	!	!	!	!	!	!
.	.	.	8f#/L	p	.	.	8A\	Do-	.	.	.	.	.	.	.	.
8E\	.	.	8e/J	.	.	.	8G\	-mi-	.	.	.	.	.	.	.	.
.	.	.	8qqe/	.	.	.	8qqG/	.	.	.	.	.	.	.	.	.
8BB/L	.	.	4d#X/	.	16aa\LL	.	4F#\	-ni	.	.	.	.	.	.	.	.
.	.	.	.	.	16gg\	.	.	.	.	.	.	.	.	.	.	.
8B\J	#4r	.	.	.	16bb\	.	.	.	.	.	.	.	.	.	.	.
.	.	.	.	.	16aa\JJ	.	.	.	.	.	.	.	.	.	.	.
.	.	.	.	.	8qqaa/	.	.	.	.	.	.	.	.	.	.	.
8r	.	.	8e/L	.	4gg\	.	8G\	in-	.	.	.	.	.	.	.	.
.	.	.	.	.	.	.	8qqF#/	.	.	.	.	.	.	.	.	.
8C/	.	.	8ee\J	.	.	.	8E\	-vo-	.	.	.	.	.	.	.	.
!	!	!	!LO:LB:g=original	!	!	!	!	!	!	!	!	!	!	!	!	!
=39	=39	=39	=39	=39	=39	=39	=39	=39	=39	=39	=39	=39	=39	=39	=39	=39
8BB/L	#	.	8ee\L	.	8gg\L	.	16B\LL	.	2r	.	2r	.	2r	.	1ryy	1ryy
.	.	.	.	.	.	.	16A#X\JJ	-ca-	.	.	.	.	.	.	.	.
8D#X/	6	.	8dd#X\J	.	8ff#\J	.	8B\	.	.	.	.	.	.	.	.	.
8E/	6	.	8r	.	8r	.	16e\LL	-bo	.	.	.	.	.	.	.	.
!	!	!	!	!	!	!	!LO:LB:g=original	!	!	!	!	!	!	!	!	!
.	.	.	.	.	.	.	16c\JJ	in-	.	.	.	.	.	.	.	.
8E/J	#4	.	8b\	.	8gg\	.	16B\LL	.	.	.	.	.	.	.	.	.
.	.	.	.	.	.	.	16A#X\JJ	-vo-	.	.	.	.	.	.	.	.
!	!	!	!	!LO:DY:a	!	!	!	!	!	!	!	!	!	!	!	!
!	!	!	!	!LO:DY:t=f&colon;	!	!	!	!	!	!	!	!	!	!	!	!
8D#X/L	6	.	4b\	f	8gg\L	.	16B\LL	.	4r	.	4r	.	4r	.	.	.
.	.	.	.	.	.	.	16A#\JJ	-ca-	.	.	.	.	.	.	.	.
8BB/	.	.	.	.	8ff#\J	.	8B\	-bo	.	.	.	.	.	.	.	.
!	!	!	!	!	!LO:LB:g=original	!	!	!	!	!	!	!	!	!	!	!
8C/	.	.	16ff#\LL	.	16a\LL	.	8B\	vo-	8B\	Vo-	8f#\	Vo-	8a\	vo-	.	.
.	.	.	16a\	.	16ff#\	.	.	.	.	.	.	.	.	.	.	.
8D#X/J	8	.	16ff#\	.	16a\	.	8BB#X/	-tu	8B\	-ta	8f#\	-ta	8a\	-tu	.	.
.	.	.	16a\JJ	.	16ff#\JJ	.	.	.	.	.	.	.	.	.	.	.
=40	=40	=40	=40	=40	=40	=40	=40	=40	=40	=40	=40	=40	=40	=40	=40	=40
4E\	9:8	.	8a/L	.	8ff#\L	.	8E\	me-	8B\	me-	8f#\	mea	8a\	me-	1ryy	1ryy
.	.	.	8g/J	.	8ee\	.	8E\	-a	8B\	-a	8e\	Do-	8g\	-a	.	.
4G#X\	6:5	.	8r	.	8bb\	.	8G#X\	Do-	16B\	Do-	16e\	-mi-	16b\	Do-	.	.
.	.	.	.	.	.	.	.	.	16B\	-mi-	16e\	-no	16cc\	-mi-	.	.
.	.	.	8b/	.	8dd\J	.	16G#\	-mi-	8B\	-no	8e\	red-	8dd\	-no	.	.
.	.	.	.	.	.	.	16G#\	-no	.	.	.	.	.	.	.	.
!	!	!	!	!	!	!	!	!	!LO:LB:g=original	!	!	!	!	!	!	!
4A\	9:8 4:3	.	8b/L	.	8dd\L	.	8A\	red-	8B\	red-	8e\	-dam	8dd\	red-	.	.
.	.	.	8a/	.	8cc\J	.	8A\	-dam	8A/	-dam	8r	.	8cc\	-dam	.	.
!	!	!	!	!	!	!	!	!	!	!	!LO:LB:g=original	!	!	!	!	!
!	!	!	!	!	!	!	!	!	!	!	!LO:TX:t=P:problem=rytm o=2x16	!	!	!	!	!
4C#X/	6	.	8a/	.	8.ee\L	.	8C/	in	8A/	in	8a\	in	8ee\	in	.	.
.	.	.	8a/J	.	.	.	8C/	con	8A/	con	8a\	con	8ee\	con	.	.
.	.	.	.	.	32dd\LL	.	.	.	.	.	.	.	.	.	.	.
.	.	.	.	.	32ee\JJJ	.	.	.	.	.	.	.	.	.	.	.
!	!	!	!	!	!	!	!	!	!	!	!	!	!LO:LB:g=original	!	!	!
=41	=41	=41	=41	=41	=41	=41	=41	=41	=41	=41	=41	=41	=41	=41	=41	=41
4.D\	n	.	8a/L	.	8ffn\L	.	8D\	spe-	8d\	spe-	8a\	Spe-	8ffn\	Spe-	1ryy	1ryy
.	.	.	8a/	.	8dd\	.	8D\	-ctu	8d\	-ctu	8a\	-ctu	8dd\	-ctu	.	.
.	.	.	8fn/	.	8b\	.	8D\	om-	8d\	Om-	8fn\	om-	8b\	Om-	.	.
8D\	6:5	.	8f/J	.	8g\J	.	8D\	-nis	8A\	-nis	8f\	-nes	8a\	-nis	.	.
8D\L	2	.	8e/	.	8g#X\L	.	8D\	po-	8B\	po-	8e\	po-	8g#X\	Po-	.	.
16C\L	#4 6	.	4a/	.	16a\L	.	16C\	-pu-	16c\	-pu-	16e\	-pu-	16a\	-pu-	.	.
16D\JJ	.	.	.	.	16aa\JJ	.	16D\	-li	16A\	-li	16f\	-li	16dd\	-li	.	.
8E\L	4	.	.	.	8cc\L	.	4E\	e-	(8A/L	e-	4e\	e-	(8cc\L	E-	.	.
8E\J	#	.	8g#X/	.	8b\J	.	.	.	8G#X/J)	.	.	.	8b\J)	.	.	.
=42	=42	=42	=42	=42	=42	=42	=42	=42	=42	=42	=42	=42	=42	=42	=42	=42
4AA/	.	.	8a\L	.	8a\L	.	4AA/	-jus	4A/	-jus	8e\	-jus	8a\	-jus	1ryy	1ryy
.	.	.	8b\J	.	8b\J	.	.	.	.	.	8r	.	8b\	in	.	.
4r	.	.	16cc\LL	.	16cc\LL	.	4r	.	4r	.	4r	.	16cc\	al-	.	.
.	.	.	16b\J	.	16b\J	.	.	.	.	.	.	.	16b\	.	.	.
.	.	.	8a\J	.	8a\J	.	.	.	.	.	.	.	8a\	-tris	.	.
8BB/L	n	.	4g/	.	8ffn\L	.	8BB/	Do-	8d\	Do-	8g\	Do-	8ffn\	Do-	.	.
!	!	!	!	!	!	!	!LO:LB:g=original	!	!	!	!	!	!	!	!	!
8C/	6 5	.	.	.	8ee\J	.	8C/	-mus	8c\	-mus	8g\	-mus	8ee\	-mus	.	.
!	!	!	!	!	!	!	!	!	!LO:LB:g=original	!	!	!	!	!	!	!
8Fn/	6	.	8a/L	.	16dd\LL	.	16Fn\	Do-	16A\	Do-	16a\	Do-	16dd\	Do-	.	.
.	.	.	.	.	16cc\	.	16F\	-mi-	16d\	-mi-	16a\	-mi-	16cc\	-mi-	.	.
8G/J	.	.	8b/J	.	16b\	.	16G\	-ni	16d\	-ni	16g\	-ni	16b\	-ni	.	.
.	.	.	.	.	16dd\JJ	.	16G\	in	16d\	in	16g\	in	16b\	in	.	.
!LO:LB:g=original	!	!	!	!	!	!	!	!	!	!	!LO:LB:g=original	!	!LO:LB:g=original	!	!	!
=43	=43	=43	=43	=43	=43	=43	=43	=43	=43	=43	=43	=43	=43	=43	=43	=43
4C/	.	.	8cc\L	.	8cc\L	.	16C/	me-	16e\	me-	16g\	me-	16cc\	me-	1ryy	1ryy
!	!	!	!	!	!	!	!	!	!	!	!	!	!LO:TX:t=P:problem=ucięta strona	!	!	!
.	.	.	.	.	.	.	16C/	-di-	16d\	-di-	16g\	-di-	16dd\	-(di)-	.	.
.	.	.	8ee\J	.	8gg\J	.	8C/	-o	8c\	-o	8g\	-o	8ee\	-o	.	.
!	!	!	!	!	!LO:TX:t=P:problem=mixed beam	!	!	!	!	!	!	!	!	!	!	!
4Fn\	6	.	8a/L	.	16aa\LL	.	8Fn\	tu-	8A\	tu-	8a\	tu-	8dd\	tu-	.	.
.	.	.	.	.	16a/	.	.	.	.	.	.	.	.	.	.	.
.	.	.	16a/L	.	16ffn\	.	16F\	-i	16d\	-i	16a\	-i	16dd\	-i	.	.
.	.	.	16fn/JJ	.	16dd\JJ	.	16F\	Je-	16d\	Je-	16a\	Je-	16cc\	JE-	.	.
.	.	.	.	.	8qqcc/	.	.	.	.	.	.	.	8qqcc/	.	.	.
8G\L	.	.	4b\	.	4dd\	.	8G\	-ru-	8.d\	-ru-	8.g\	-ru-	8.b\	-ru-	.	.
8GG/J	.	.	.	.	.	.	8GG/	-sa-	.	.	.	.	.	.	.	.
.	.	.	.	.	.	.	.	.	16d\	-sa-	16g\	-sa-	16b\	-sa-	.	.
4C/	.	.	4cc\	.	4cc\	.	4C/	-lem	4e\	-lem	4g\	-lem	4cc\	-lem	.	.
!	!	!	!LO:LB:g=original	!	!LO:LB:g=original	!	!	!	!	!	!	!	!	!	!	!
=44	=44	=44	=44	=44	=44	=44	=44	=44	=44	=44	=44	=44	=44	=44	=44	=44
!	!	!LO:DY:a	!	!	!	!	!	!	!	!	!	!	!LO:TX:a:t=4	!	!	!
!	!	!LO:DY:t=f&colon;	!	!	!	!	!	!	!	!	!	!	!	!	!	!
8r	.	f	8r	.	8r	.	4.G\	Glo-	1r	.	1r	.	1r	.	1ryy	1ryy
!	!	!	!LO:TX:t=P:problem=mixed beam	!	!	!LO:DY:a	!	!	!	!	!	!	!	!	!	!
!	!	!	!	!	!	!LO:DY:t=p&colon;	!	!	!	!	!	!	!	!	!	!
8GG/L	.	.	8d/L	.	8b\L	p	.	.	.	.	.	.	.	.	.	.
8BB/	.	.	8G/	.	8dd\	.	.	.	.	.	.	.	.	.	.	.
8GG/J	.	.	8b\J	.	8gg\J	.	16A\	-ri-	.	.	.	.	.	.	.	.
.	.	.	.	.	.	.	16B\	-a	.	.	.	.	.	.	.	.
8r	.	.	16b\LL	.	16gg\LL	.	16B\LL	Pa-	.	.	.	.	.	.	.	.
.	.	.	16a\	.	16ff#X\J	.	16A\JJ	.	.	.	.	.	.	.	.	.
8D\L	.	.	16a\	.	8ff#\J	.	8A\	-tri	.	.	.	.	.	.	.	.
.	.	.	16cc\JJ	.	.	.	.	.	.	.	.	.	.	.	.	.
8F#X\	.	.	8cc\L	.	4aa\	.	8r	.	.	.	.	.	.	.	.	.
8D\J	.	.	8cc\J	.	.	.	8c\	et	.	.	.	.	.	.	.	.
!	!	!	!	!	!	!	!LO:LB:g=original	!	!	!	!	!	!	!	!	!
=45	=45	=45	=45	=45	=45	=45	=45	=45	=45	=45	=45	=45	=45	=45	=45	=45
8r	.	.	16cc\LL	.	16aa\LL	.	16c\	Fi-	1r	.	1r	.	1r	.	1ryy	1ryy
.	.	.	16b\J	.	16gg\J	.	16B\	-li-	.	.	.	.	.	.	.	.
!LO:TX:t=P:problem=mixed beam	!	!	!	!	!	!	!	!	!	!	!	!	!	!	!	!
8G\L	.	.	8b\J	.	8gg\J	.	8B\	-o	.	.	.	.	.	.	.	.
8GG/	.	.	8b\L	.	4dd\	.	8r	.	.	.	.	.	.	.	.	.
16BB/L	.	.	16g\L	.	.	.	16d\	et	.	.	.	.	.	.	.	.
16AA/JJ	.	.	16f#\JJ	.	.	.	16d\	Spi-	.	.	.	.	.	.	.	.
8BB/L	.	.	8d/L	.	8gg\L	.	4d\	-ri-	.	.	.	.	.	.	.	.
8GG/J	.	.	8dd\J	.	16aa\L	.	.	.	.	.	.	.	.	.	.	.
.	.	.	.	.	16bb\JJ	.	.	.	.	.	.	.	.	.	.	.
4C/	5:6	.	8r	.	8.cc\L	.	16e\LL	-tu-	.	.	.	.	.	.	.	.
.	.	.	.	.	.	.	16c\JJ	.	.	.	.	.	.	.	.	.
.	.	.	16a/LL	.	.	.	(16A\LL	-i	.	.	.	.	.	.	.	.
.	.	.	16g/JJ	.	16b#X\Jk	.	16G\JJ)	.	.	.	.	.	.	.	.	.
=46	=46	=46	=46	=46	=46	=46	=46	=46	=46	=46	=46	=46	=46	=46	=46	=46
.	.	.	.	.	8qqb/	.	.	.	.	.	.	.	.	.	.	.
8D\L	.	.	8f#/L	.	4a\	.	16F#\LL	San-	1r	.	1r	.	1r	.	1ryy	1ryy
.	.	.	.	.	.	.	16A\JJ	.	.	.	.	.	.	.	.	.
8D\	.	.	8f#/J	.	.	.	8D\	-cto	.	.	.	.	.	.	.	.
8D\	.	.	16A/LL	.	16d/LL	.	4r	.	.	.	.	.	.	.	.	.
.	.	.	16d/	.	16f#/	.	.	.	.	.	.	.	.	.	.	.
8D\J	.	.	16f#/	.	16a/	.	.	.	.	.	.	.	.	.	.	.
.	.	.	16a/JJ	.	16dd/JJ	.	.	.	.	.	.	.	.	.	.	.
8D\L	.	.	16dd\LL	.	16ff#\LL	.	4r	.	.	.	.	.	.	.	.	.
.	.	.	16ff#\J	.	16aa\J	.	.	.	.	.	.	.	.	.	.	.
8D\	.	.	8ff#\J	.	8ddd\J	.	.	.	.	.	.	.	.	.	.	.
8D\	.	.	8ff#\L	.	8aa\L	.	(16D\LL	Si-	.	.	.	.	.	.	.	.
.	.	.	.	.	.	.	16F#\)	.	.	.	.	.	.	.	.	.
8D\J	.	.	8ff#\J	.	8aa\J	.	(16A\	-cut	.	.	.	.	.	.	.	.
.	.	.	.	.	.	.	16c\JJ)	.	.	.	.	.	.	.	.	.
=47	=47	=47	=47	=47	=47	=47	=47	=47	=47	=47	=47	=47	=47	=47	=47	=47
8F#\L	.	.	8dd\L	.	8aa\L	.	8c\	e-	1r	.	1r	.	1r	.	1ryy	1ryy
8G\J	.	.	8dd\J	.	8gg\	.	8B\	-rat	.	.	.	.	.	.	.	.
4r	.	.	4r	.	8aa\	.	16D\LL	in	.	.	.	.	.	.	.	.
.	.	.	.	.	.	.	16F#\JJ	.	.	.	.	.	.	.	.	.
.	.	.	.	.	8aa\J	.	16A\LL	prin-	.	.	.	.	.	.	.	.
.	.	.	.	.	.	.	16c\JJ	.	.	.	.	.	.	.	.	.
8F#\L	.	.	8dd\L	.	8aa\L	.	16c\	-ci-	.	.	.	.	.	.	.	.
.	.	.	.	.	.	.	16B\	-pi-	.	.	.	.	.	.	.	.
8G\J	.	.	8dd\J	.	8gg\J	.	16B\	-o	.	.	.	.	.	.	.	.
!	!	!	!	!	!	!	!LO:LB:g=original	!	!	!	!	!	!	!	!	!
.	.	.	.	.	.	.	16d\	et	.	.	.	.	.	.	.	.
8r	.	.	8r	.	4dd\	.	8Fn\	nunc	.	.	.	.	.	.	.	.
8C/	.	.	8fn/	.	.	.	8F\	et	.	.	.	.	.	.	.	.
!LO:LB:g=original	!	!	!LO:LB:g=original	!	!	!	!	!	!	!	!	!	!	!	!	!
=48	=48	=48	=48	=48	=48	=48	=48	=48	=48	=48	=48	=48	=48	=48	=48	=48
!	!	!LO:DY:a	!	!	!	!	!	!	!	!	!	!	!	!	!	!
!	!	!LO:DY:t=F&colon;	!	!	!	!	!	!	!	!	!	!	!	!	!	!
4C/	.	f	8f#/L	.	8dd\L	.	8F#\	Sem-	4r	.	4r	.	4r	.	1ryy	1ryy
.	.	.	8e/J	.	8cc\J	.	8E\	-per	.	.	.	.	.	.	.	.
!	!	!	!	!LO:DY:a	!	!LO:DY:a	!	!	!	!	!	!	!	!	!	!
!	!	!	!	!LO:DY:t=f.	!	!LO:DY:t=f&colon;	!	!	!	!	!	!	!	!	!	!
4C/	5:6	.	16ee\LL	f	16ee\LL	f	8C\	et	8G/	(Et)	8e\	et	(16ee\LL	Et	.	.
.	.	.	16cc\	.	16cc\	.	.	.	.	.	.	.	16cc\JJ)	.	.	.
.	.	.	16a\	.	16a\	.	8C\	in	8A/	in	8e\	in	(16a\LL	in	.	.
.	.	.	16g\JJ	.	16g\JJ	.	.	.	.	.	.	.	16g\JJ)	.	.	.
!	!	!	!	!	!LO:LB:g=original	!	!	!	!	!	!	!	!	!	!	!
8D\L	4:3	.	8g/L	.	8g/L	.	8D\	sae-	16A/	Sae-	16e\	Sae-	16g\	Sae-	.	.
.	.	.	.	.	.	.	.	.	16A/	-cu-	16e\	-cu-	16g\	-cu-	.	.
8D\	.	.	8f#X/	.	8f#/J	.	16D\	-cu-	8A/	-la	8d\	-la	8f#\	-la	.	.
.	.	.	.	.	.	.	16D\	-la	.	.	.	.	.	.	.	.
!	!	!	!	!	!LO:TX:a:t=t&colon;	!	!	!	!	!	!	!	!	!	!	!
!	!	!	!	!	!	!	!	!	!LO:LB:g=original	!	!	!	!	!	!	!
8E\	6|	.	8g/	.	4cc#X\	.	8E\	sae-	8A/	Sae-	8g\	Sae-	8cc#X\	Sae-	.	.
8E\J	.	.	8g/J	.	.	.	8E\	-cu-	8A/	-cu-	8g\	-cu-	8cc#\	-cu-	.	.
!	!	!	!	!	!	!	!	!	!	!	!LO:LB:g=original	!	!	!	!	!
=49	=49	=49	=49	=49	=49	=49	=49	=49	=49	=49	=49	=49	=49	=49	=49	=49
8D\L	.	.	8f#/L	.	8dd\L	.	(8D\	-lo-	8A\	-lo-	8f#\	-lo-	8dd\	-lo-	1ryy	1ryy
*	*	*	*Xtuplet	*	*Xtuplet	*	*	*	*	*	*	*	*	*	*	*
8Cn\	6 5	.	24ccn/L	.	24ee\L	.	8Cn/)	.	8cn\	-rum	16g\LL	-rum	(16ee\LL	-rum	.	.
.	.	.	24b/	.	24dd\	.	.	.	.	.	.	.	.	.	.	.
.	.	.	.	.	.	.	.	.	.	.	16a\JJ	.	16ccn\JJ)	.	.	.
.	.	.	24a/JJ	.	24ccn\JJ	.	.	.	.	.	.	.	.	.	.	.
8D\	.	.	8g/L	.	8b\L	.	4D\	-rum	8r	.	8g\L	a-	(8b\L	a-	.	.
8D\J	4:3	.	8f#/J	.	8a\J	.	.	.	8c\	A-	8f#\J	.	8a\J)	.	.	.
!	!	!	!	!	!	!	!	!	!	!	!	!	!LO:LB:g=original	!	!	!
8E\L	.	.	8g/	.	16r	.	(8E\	a-	4B\	-men	8g\	-men	(8g\L	-men	.	.
.	.	.	.	.	16gg\LL	.	.	.	.	.	.	.	.	.	.	.
8C\	.	.	4g/	.	16ee\	.	8C\)	.	.	.	16g\LL	a-	16ee\L	a-	.	.
.	.	.	.	.	16cc\JJ	.	.	.	.	.	16a\JJ	.	16cc\JJ)	.	.	.
8D\	4	.	.	.	16b\LL	.	4D\	-men	8r	.	8g\L	.	8b\L	.	.	.
.	.	.	.	.	16gg\	.	.	.	.	.	.	.	.	.	.	.
*	*	*	*	*	*	*	*	*	*	*ij	*	*	*	*	*	*
8D\J	3	.	8c/	.	16a\	.	.	.	8d\	A-	8f#\J	.	8a\J	.	.	.
.	.	.	.	.	16ff#\JJ	.	.	.	.	.	.	.	.	.	.	.
=50	=50	=50	=50	=50	=50	=50	=50	=50	=50	=50	=50	=50	=50	=50	=50	=50
!	!	!LO:DY:a:t=p&colon;	!	!	!	!	!	!	!	!	!	!	!	!	!	!
4GG/	.	p	4B/	.	4g/	.	16G\LL	a-	4B\	-men	4d\	-men	4g\	-men	1ryy	1ryy
*	*	*	*	*	*	*	*	*	*	*Xij	*	*	*	*	*	*
.	.	.	.	.	.	.	16B\	.	.	.	.	.	.	.	.	.
.	.	.	.	.	.	.	16A\	.	.	.	.	.	.	.	.	.
.	.	.	.	.	.	.	16c\JJ	.	.	.	.	.	.	.	.	.
!	!	!	!	!	!	!LO:DY:a	!	!	!	!	!	!	!	!	!	!
!	!	!	!	!	!	!LO:DY:t=p&colon;	!	!	!	!	!	!	!	!	!	!
8r	.	.	8r	.	8r	p	16B\LL	.	4r	.	4r	.	4r	.	.	.
.	.	.	.	.	.	.	16d\	.	.	.	.	.	.	.	.	.
8D\	.	.	8dd\	.	8ff#\	.	16c\	.	.	.	.	.	.	.	.	.
.	.	.	.	.	.	.	16A\JJ	.	.	.	.	.	.	.	.	.
!	!	!	!	!	!	!	!LO:LB:g=original	!	!	!	!	!	!	!	!	!
4G\	.	.	4dd\	.	4gg\	.	16B\LL	.	2r	.	2r	.	2r	.	.	.
.	.	.	.	.	.	.	16G\	.	.	.	.	.	.	.	.	.
.	.	.	.	.	.	.	16F#\	.	.	.	.	.	.	.	.	.
.	.	.	.	.	.	.	16E\JJ	.	.	.	.	.	.	.	.	.
4r	.	.	4r	.	4r	.	16D\LL	.	.	.	.	.	.	.	.	.
.	.	.	.	.	.	.	16C\	.	.	.	.	.	.	.	.	.
.	.	.	.	.	.	.	16BB\	.	.	.	.	.	.	.	.	.
.	.	.	.	.	.	.	16AA\JJ	.	.	.	.	.	.	.	.	.
=51	=51	=51	=51	=51	=51	=51	=51	=51	=51	=51	=51	=51	=51	=51	=51	=51
!	!	!LO:DY:a	!	!	!	!LO:DY:a	!	!	!	!	!	!	!	!	!	!
!	!	!LO:DY:t=F&colon;	!	!	!	!LO:DY:t=f&colon;	!	!	!	!	!	!	!	!	!	!
8r	.	f	8r	.	8r	f	8GG/	-men	8r	.	8r	.	8r	.	1ryy	1ryy
8E\L	.	.	16b\LL	.	16gg\LL	.	8E\L	a-	8B\L	A-	8g\L	a-	8ee\	a-	.	.
.	.	.	16g\JJ	.	16bb\JJ	.	.	.	.	.	.	.	.	.	.	.
8C\	.	.	8ee\L	.	8a/L	.	8C\	.	8c\	.	8a\	.	4dd\	.	.	.
8D\J	.	.	8a\J	.	8ff#\J	.	8D\J	.	8A\J	.	8f#\J	.	.	.	.	.
4GG/	.	.	4G/ 4d 4b	.	4G/ 4d 4b 4gg	.	4GG/	-men	4B\	-men	4g\	-men	4dd\	-men	.	.
4r	.	.	4r	.	4r	.	4r	.	4r	.	4r	.	4r	.	.	.
==	==	==	==	==	==	==	==	==	==	==	==	==	==	==	==	==
*-	*-	*-	*-	*-	*-	*-	*-	*-	*-	*-	*-	*-	*-	*-	*-	*-
!!!system-decoration: [(s1,s2)][(s3,s4,s5,s6)][(s7,s8)]s9
!!!ENC: Andrzej Gręziak
!!!END: 2020-08-31
!!!ENC: Jan Barakat
!!!END: 2022-02-24
!!!YEC: Copyright 2022 Narodowy Instytut Fryderyka Chopina (https://polishscores.org)
!!!YEM: Licence CC BY 4.0 (https://creativecommons.org/licenses/by/4.0)
